!!!Melodie: eigene
!!!Typ: Lied
**kern	**silbe	**silbe	**silbe	**silbe	**silbe	**silbe	**silbe	**silbe	**silbe	**silbe	**silbe	**silbe	**silbe	**silbe	**silbe
*clefG2	*lang:DE	*lang:DE	*lang:DE	*lang:DE	*lang:DE	*lang:DE	*lang:DE	*lang:DE	*lang:DE	*lang:DE	*lang:DE	*lang:DE	*lang:DE	*lang:DE	*lang:DE
*M4/4	*	*	*	*	*	*	*	*	*	*	*	*	*	*	*
*met(c)	*	*	*	*	*	*	*	*	*	*	*	*	*	*	*
4r	%	%	%	%	%	%	%	%	%	%	%	%	%	%	%
4a	Herz#	Du	Was	Wie	Der	Ich	O	Ach!	Ich	Doch	Weil’s	Als#	Ich	Dies	Wenn
4a	#lieb#	wirst	ist	wun#	From#	war	gro#	gro#	kann	ist	a#	#dann	wer#	al#	dort,
4a	#ster	ge#	die	#der#	#me	von	#ße	#ßer	mit	noch	#ber	so	#de	#les,	Herr
=	=	=	=	=	=	=	=	=	=	=	=	=	=	=	=
4g	Je#	#gei#	Ur#	#bar#	stirbt,	Fuss	Lieb’!	Kö#	mei#	et#	nicht	werd’	dir	ob’s	Je#
4e	#su!	#ßelt,	#sach'	#lich	der	auf	O	#nig,	#nen	#was,	be#	ich	zu	für	#su,
4a	was	und	al#	ist	recht	vol#	Lieb’	groß	Sin#	das	#steht	dei#	Eh#	schlecht	dort
4b	hast	mit	#ler	doch	und	#ler	ohn’	zu	#nen	dir	in	#ne	#ren	zwar	vor
=	=	=	=	=	=	=	=	=	=	=	=	=	=	=	=
4cc	du	Dorn’n	sol#	die#	rich#	Schand’	al#	al#	nicht	an#	eig#	Huld	al#	ist	dei#
4cc	ver#	ge#	#cher	#se	#tig	und	#le	#len	er#	#ge#	#'nen	be#	#les	zu	#nem
(4dd	#broch#	#krö#	Pla#	Stra#	wan#	Sün#	Ma#	Zei#	#rei#	#neh#	Kräf#	#trach#	wa#	schät#	Thro#
4cc)	|	|	|	|	|	|	|	|	|	|	|	|	|	|	|
=	=	=	=	=	=	=	=	=	=	=	=	=	=	=	=
2;b	#en,	#net,	#gen?	#fe!	#delt;	#den,	#ße!	#ten,	#chen,	#me:	#ten,	#ten,	#gen,	#zen,	#ne
4r	%	%	%	%	%	%	%	%	%	%	%	%	%	%	%
4b	dass	ins	Ach!	der	der	bis	Die	wie	wo#	wenn	fest	aus	kein	wirst	auf
=	=	=	=	=	=	=	=	=	=	=	=	=	=	=	=
4cc	man	An#	mei#	gu#	Bö#	zu	dich	kann	#mit	ich	die	Lieb’	Kreuz	du	mei#
4dd	ein	#ge#	#ne	#te	#se	der	ge#	ich	doch	des	Be#	an	nicht	es	#nem
4ee	solch’	#sicht	Sün#	Hir#	lebt,	Schei#	#bracht	g’nüg#	dein	Flei#	#gier#	dich	ach#	doch	Haup#
4cc	scharf’	ge#	#den	#te	der	#tel	auf	#sam	Er#	#sches	#den	die	#ten,	gar	#te
=	=	=	=	=	=	=	=	=	=	=	=	=	=	=	=
4ff	Ur#	#schla#	ha#	lei#	wi#	war	die#	solch’	#bar#	Lus#	an	Welt	kei#	nicht	steh’n
4ee	#teil	#gen	#ben	#det	#der	nichts	#se	Treu’	#men	#ten	das	für	#ne	bei#	ein’
4dd	hat	und	dich	für	Gott	gut’s	Mar#	aus#	zu	dämpf’	Kreuz	nich#	Schmach	#sei#	Eh#
4cc	ge#	ver#	ge#	die	miss#	zu	#ter#	#be#	ver#	und	zu	#tes	und	#te	#ren#
=	=	=	=	=	=	=	=	=	=	=	=	=	=	=	=
(4cc	#spro#	#höh#	#schla#	Scha#	#han#	fin#	#stra#	#rei#	#glei#	zäh#	hef#	ach#	Pla#	set#	#kro#
4b)	|	|	|	|	|	|	|	|	|	|	|	|	|	|	|
2;cc	#chen?	#net;	#gen;	#fe;	#delt:	#den,	#ße:	#ten?	#chen;	#me.	#ten;	#ten:	#gen,	#zen:	#ne,
=	=	=	=	=	=	=	=	=	=	=	=	=	=	=	=
4r	%	%	%	%	%	%	%	%	%	%	%	%	%	%	%
4cc	Was	du	Ich,	Die	der	Da#	Ich	Kein’s	Wie	Dass	so	Be#	nichts	in	dann
4b	ist	wirst	ach!	Schuld	Mensch	#für	leb#	Men#	kann	sie	gib	#mü#	von	Gna#	will
4a	die	mit	Herr	be#	ver#	hätt’	#te	#schen	ich	auf’s	mir	#hen	Ver#	#den	ich
=	=	=	=	=	=	=	=	=	=	=	=	=	=	=	=
4g	Schuld,	Es#	Je#	#zahlt	#wirkt	ich	mit	Herz	dir	Neu’	dei#	werd	#fol#	wirst	dir,
4e	in	#sig	#su,	der	den	dort	der	mag	denn	mein	#nen	ich	#gung,	du	wenn
4g	was	und	ha#	Her#	Tod	in	Welt	es	dei#	Her#	Geist,	mich,	nichts	dies	al#
4g	für	mit	#be	#re,	und	der	in	ihm	#ne	#ze	der	Herr,	von	von	#les
=	=	=	=	=	=	=	=	=	=	=	=	=	=	=	=
4a	Mis#	Gall’	dies	der	ist	Höl#	Lust	aus#	Lie#	nicht	mich	dei#	To#	mir	wird
4g	#se#	ge#	ver#	Ge#	ent#	#len	und	#zu#	#bes#	ent#	re#	#nen	#des#	an#	wohl
(4.f	#ta#	#trän#	#schul#	#rech#	#gan#	müs#	Freu#	#den#	#ta#	#zün#	#gie#	Wil#	#schmer#	#neh#	klin#
8e)	|	|	|	|	|	|	|	|	|	|	|	|	|	|	|
=	=	=	=	=	=	=	=	=	=	=	=	=	=	=	=
2;e	#ten	#ket,	#det,	#te,	#gen;	#sen	#den,	#ken,	#ten	#den	#re,	#len	#zen	#men,	#gen,
4r	%	%	%	%	%	%	%	%	%	%	%	%	%	%	%
4ee	bist	ans	was	für	Gott	e#	und	was	im	mit	zum	stets	neh#	mich	Lob
=	=	=	=	=	=	=	=	=	=	=	=	=	=	=	=
4dd	du	Kreuz	du	sei#	wird	#wig#	du	dir	Werk	al#	Gu#	zu	#men	nicht	und
4cc	ge#	ge#	er#	#ne	ge#	#lich	musst	zu	er#	#ten	#ten	er#	zu	be#	Dank
(4.b	#ra#	#hen#	#dul#	Knech#	#fan#	bü#	lei#	schen#	#stat#	Sün#	füh#	#fül#	Her#	#schä#	sin#
8a)	|	|	|	|	|	|	|	|	|	|	|	|	|	|	|
=	=	=	=	=	=	=	=	=	=	=	=	=	=	=	=
1;a	#ten?	#ket.	#det.	#te.	#gen.	#ßen.	#den.	#ken.	#ten?	#den.	#re.	#len.	#zen.	#men.	#gen.
==	==	==	==	==	==	==	==	==	==	==	==	==	==	==	==
*-	*-	*-	*-	*-	*-	*-	*-	*-	*-	*-	*-	*-	*-	*-	*-
